symbols/web/keyboard_hide/materialsymbolssharp/keyboard_hide_wght200_24px.svg

<svg xmlns="http://www.w3.org/2000/svg" height="24" width="24"><path d="M3 16V4H21V16ZM4 15V5V15ZM11.225 7.775H12.775V6.225H11.225ZM11.225 10.775H12.775V9.225H11.225ZM8.225 7.775H9.775V6.225H8.225ZM8.225 10.775H9.775V9.225H8.225ZM5.225 10.775H6.775V9.225H5.225ZM5.225 7.775H6.775V6.225H5.225ZM8.225 13.775H15.775V12.225H8.225ZM14.225 10.775H15.775V9.225H14.225ZM14.225 7.775H15.775V6.225H14.225ZM17.225 10.775H18.775V9.225H17.225ZM17.225 7.775H18.775V6.225H17.225ZM12 21.85 8.925 18.775H15.075ZM4 15H20V5H4Z"/></svg>

<svg xmlns="http://www.w3.org/2000/svg" height="24" width="24"><path d="M3 16V4h18v12Zm1-1V5v10Zm7.225-7.225h1.55v-1.55h-1.55Zm0 3h1.55v-1.55h-1.55Zm-3-3h1.55v-1.55h-1.55Zm0 3h1.55v-1.55h-1.55Zm-3 0h1.55v-1.55h-1.55Zm0-3h1.55v-1.55h-1.55Zm3 6h7.55v-1.55h-7.55Zm6-3h1.55v-1.55h-1.55Zm0-3h1.55v-1.55h-1.55Zm3 3h1.55v-1.55h-1.55Zm0-3h1.55v-1.55h-1.55ZM12 21.85l-3.075-3.075h6.15ZM4 15h16V5H4Z"/></svg>
